src/static/logos/dockbit.svg

<?xml version="1.0" encoding="UTF-8"?>
<svg width="256px" height="286px" viewBox="0 0 256 286" version="1.1" xmlns="http://www.w3.org/2000/svg" xmlns:xlink="http://www.w3.org/1999/xlink" preserveAspectRatio="xMidYMid">
    <defs>
        <linearGradient x1="77.0408937%" y1="13.1836579%" x2="22.8410618%" y2="87.5393848%" id="linearGradient-1">
            <stop stop-color="#7236DC" offset="0%"></stop>
            <stop stop-color="#3F37AE" offset="100%"></stop>
        </linearGradient>
    </defs>
    <g>
        <path d="M240.48144,60.1304836 L143.524809,4.15951581 C133.917883,-1.38550527 122.086283,-1.38550527 112.479357,4.15951581 L15.5227262,60.1304836 C5.91996615,65.6796707 0,75.9281695 0,87.0182116 L0,198.972645 C0,210.062688 5.91996615,220.311186 15.5227262,225.856207 L112.479357,281.839673 C122.086283,287.384694 133.917883,287.384694 143.524809,281.839673 L240.48144,225.856207 C250.0842,220.311186 256,210.062688 256,198.972645 L256,87.0182116 C256,75.9281695 250.0842,65.6796707 240.48144,60.1304836 L240.48144,60.1304836 Z M231.166138,196.048074 C231.166138,199.376753 229.391398,202.451302 226.508487,204.117725 L203.82431,217.215806 C200.941399,218.878063 197.391919,218.878063 194.509007,217.215806 L171.820664,204.117725 C168.941919,202.455469 167.167179,199.376753 167.167179,196.048074 L167.167179,169.851911 C167.167179,166.523232 168.941919,163.452848 171.820664,161.786426 L194.509007,148.688345 C197.391919,147.026088 200.941399,147.026088 203.82431,148.688345 L226.508487,161.786426 C229.391398,163.448682 231.166138,166.523232 231.166138,169.851911 L231.166138,196.048074 Z" fill="url(#linearGradient-1)"></path>
    </g>
</svg>

<svg width="256" height="286" xmlns="http://www.w3.org/2000/svg" preserveAspectRatio="xMidYMid"><defs><linearGradient x1="77.041%" y1="13.184%" x2="22.841%" y2="87.539%" id="a"><stop stop-color="#7236DC" offset="0%"/><stop stop-color="#3F37AE" offset="100%"/></linearGradient></defs><path d="M240.481 60.13L143.525 4.16a31.049 31.049 0 00-31.046 0L15.523 60.13A31.06 31.06 0 000 87.018v111.955c0 11.09 5.92 21.338 15.523 26.883l96.956 55.984a31.049 31.049 0 0031.046 0l96.956-55.984A31.044 31.044 0 00256 198.973V87.018a31.056 31.056 0 00-15.519-26.888zm-9.315 135.918a9.32 9.32 0 01-4.658 8.07l-22.684 13.098a9.324 9.324 0 01-9.315 0l-22.688-13.098a9.32 9.32 0 01-4.654-8.07v-26.196c0-3.329 1.775-6.4 4.654-8.066l22.688-13.098a9.324 9.324 0 019.315 0l22.684 13.098a9.308 9.308 0 014.658 8.066v26.196z" fill="url(#a)"/></svg>
